outputs/icons/file/cloud_upload_round.svg

<svg xmlns="http://www.w3.org/2000/svg" width="1200" height="1200" fill="none"><g clip-path="url(#a)"><path fill="#000" d="M967.5 502C933.5 329.5 782 200 600 200c-144.5 0-270 82-332.5 202C117 418 0 545.5 0 700c0 165.5 134.5 300 300 300h650c138 0 250-112 250-250 0-132-102.5-239-232.5-248M700 650v200H500V650H350l232.5-232.5c10-10 25.5-10 35.5 0L850 650z"/></g><defs><clipPath id="a"><path fill="#fff" d="M0 0h1200v1200H0z"/></clipPath></defs></svg>

<svg width="1200" height="1200" viewBox="0 0 1200 1200" fill="none" xmlns="http://www.w3.org/2000/svg"><g clip-path="url(#clip0_238_2804)"><path d="M967.5 502C933.5 329.5 782 200 600 200C455.5 200 330 282 267.5 402C117 418 0 545.5 0 700C0 865.5 134.5 1000 300 1000H950C1088 1000 1200 888 1200 750C1200 618 1097.5 511 967.5 502ZM700 650V850H500V650H350L582.5 417.5C592.5 407.5 608 407.5 618 417.5L850 650H700Z" fill="black"/></g><defs><clipPath id="clip0_238_2804"><path width="24" fill="white" d="M0 0H1200V1200H0V0z"/></clipPath></defs></svg>
